Catalina-dark/actions/16/kstars_indi.svg

<?xml version="1.0" encoding="UTF-8" standalone="no"?>
<svg
   xmlns:dc="http://purl.org/dc/elements/1.1/"
   xmlns:cc="http://creativecommons.org/ns#"
   xmlns:rdf="http://www.w3.org/1999/02/22-rdf-syntax-ns#"
   xmlns:svg="http://www.w3.org/2000/svg"
   xmlns="http://www.w3.org/2000/svg"
   xmlns:sodipodi="http://sodipodi.sourceforge.net/DTD/sodipodi-0.dtd"
   xmlns:inkscape="http://www.inkscape.org/namespaces/inkscape"
   width="16"
   height="16"
   viewBox="0 0 16 16"
   version="1.1"
   id="svg7"
   sodipodi:docname="kstars_indi.svg"
   inkscape:version="0.92.4 5da689c313, 2019-01-14">
  <metadata
     id="metadata11">
    <rdf:RDF>
      <cc:Work
         rdf:about="">
        <dc:format>image/svg+xml</dc:format>
        <dc:type
           rdf:resource="http://purl.org/dc/dcmitype/StillImage" />
      </cc:Work>
    </rdf:RDF>
  </metadata>
  <sodipodi:namedview
     pagecolor="#ffffff"
     bordercolor="#666666"
     borderopacity="1"
     objecttolerance="10"
     gridtolerance="10"
     guidetolerance="10"
     inkscape:pageopacity="0"
     inkscape:pageshadow="2"
     inkscape:window-width="640"
     inkscape:window-height="480"
     id="namedview9"
     showgrid="false"
     inkscape:zoom="14.75"
     inkscape:cx="6.8135593"
     inkscape:cy="8"
     inkscape:window-x="0"
     inkscape:window-y="26"
     inkscape:window-maximized="0"
     inkscape:current-layer="svg7" />
  <defs
     id="defs3">
    <style
       id="current-color-scheme"
       type="text/css">
   .ColorScheme-Text { color:#5c616c; } .ColorScheme-Highlight { color:#5294e2; }
  </style>
  </defs>
  <path
     style="fill:#f1f6f8;fill-opacity:0.8509804"
     class="ColorScheme-Text"
     d="M 2 0 L 4.8125 16 L 10.25 16 L 14 0 L 2 0 z M 3.5 2 C 3.77614 2 4 2.2239 4 2.5 C 4 2.7761 3.77614 3 3.5 3 C 3.22386 3 3 2.7761 3 2.5 C 3 2.2239 3.22386 2 3.5 2 z M 10.5 2 C 10.77614 2 11 2.2239 11 2.5 C 11 2.7761 10.77614 3 10.5 3 C 10.22386 3 10 2.7761 10 2.5 C 10 2.2239 10.22386 2 10.5 2 z M 7.9042969 4.0019531 C 9.4444969 3.9519531 10.771709 5.0778688 10.974609 6.6054688 C 11.192879 8.2483688 10.037581 9.7571094 8.3945312 9.9746094 C 6.7516312 10.192909 5.2428906 9.0376313 5.0253906 7.3945312 C 4.8071206 5.7516312 5.9624187 4.2428906 7.6054688 4.0253906 C 7.7046288 4.0123906 7.8043569 4.0039531 7.9042969 4.0019531 z M 9.5 11.001953 C 9.77614 11.001953 10 11.225853 10 11.501953 C 10 11.778053 9.77614 12.001953 9.5 12.001953 C 9.22386 12.001953 9 11.778053 9 11.501953 C 9 11.225853 9.22386 11.001953 9.5 11.001953 z M 6.5 13.001953 C 6.77614 13.001953 7 13.225853 7 13.501953 C 7 13.778053 6.77614 14.001953 6.5 14.001953 C 6.22386 14.001953 6 13.778053 6 13.501953 C 6 13.225853 6.22386 13.001953 6.5 13.001953 z"
     id="path5" />
</svg>

<svg width="16" height="16" version="1.1" viewBox="0 0 16 16" xmlns="http://www.w3.org/2000/svg">
<defs>
<style id="current-color-scheme" type="text/css">.ColorScheme-Text { color:#5c616c; } .ColorScheme-Highlight { color:#5294e2; }</style>
</defs>
<path class="ColorScheme-Text" d="m2 0 2.8125 16h5.4375l3.75-16h-12zm1.5 2c0.27614 0 0.5 0.2239 0.5 0.5s-0.22386 0.5-0.5 0.5-0.5-0.2239-0.5-0.5 0.22386-0.5 0.5-0.5zm7 0c0.27614 0 0.5 0.2239 0.5 0.5s-0.22386 0.5-0.5 0.5-0.5-0.2239-0.5-0.5 0.22386-0.5 0.5-0.5zm-2.5957 2.002c1.5402-0.05 2.8674 1.0759 3.0703 2.6035 0.21827 1.6429-0.93703 3.1516-2.5801 3.3691-1.6429 0.2183-3.1516-0.93698-3.3691-2.5801-0.21827-1.6429 0.93703-3.1516 2.5801-3.3691 0.09916-0.013 0.19889-0.021438 0.29883-0.023438zm1.5957 7c0.27614 0 0.5 0.2239 0.5 0.5s-0.22386 0.5-0.5 0.5-0.5-0.2239-0.5-0.5 0.22386-0.5 0.5-0.5zm-3 2c0.27614 0 0.5 0.2239 0.5 0.5s-0.22386 0.5-0.5 0.5-0.5-0.2239-0.5-0.5 0.22386-0.5 0.5-0.5z" fill="#f1f6f8" fill-opacity=".85098"/>
</svg>
